source/img/icons/vk-icon-mono.svg

<svg width="48" height="48" viewBox="0 0 48 48" fill="none" xmlns="http://www.w3.org/2000/svg">
<path fill-rule="evenodd" clip-rule="evenodd" d="M0 24C0 10.7452 10.7452 0 24 0C37.2548 0 48 10.7452 48 24C48 37.2548 37.2548 48 24 48C10.7452 48 0 37.2548 0 24ZM25.2555 31.8761C25.2555 31.8761 25.7175 31.8257 25.9541 31.5762C26.1707 31.3476 26.1632 30.9162 26.1632 30.9162C26.1632 30.9162 26.1344 28.9018 27.0873 28.6043C28.0264 28.3118 29.2321 30.5524 30.5118 31.414C31.4784 32.0654 32.2121 31.9228 32.2121 31.9228L35.6316 31.8761C35.6316 31.8761 37.4196 31.7679 36.5719 30.3877C36.5018 30.2746 36.0773 29.3664 34.0302 27.5006C31.8853 25.5477 32.1733 25.8635 34.7551 22.4849C36.3278 20.4274 36.9563 19.1713 36.7597 18.6343C36.5732 18.1205 35.4162 18.2569 35.4162 18.2569L31.5673 18.2803C31.5673 18.2803 31.2818 18.2422 31.0702 18.3663C30.8636 18.488 30.7296 18.7719 30.7296 18.7719C30.7296 18.7719 30.1211 20.3635 29.3085 21.7179C27.5944 24.5743 26.9095 24.7254 26.629 24.5485C25.9767 24.1343 26.1394 22.8868 26.1394 22.0006C26.1394 19.2316 26.5677 18.0775 25.3068 17.7788C24.8886 17.6793 24.5806 17.6141 23.51 17.6031C22.1365 17.5896 20.9745 17.608 20.3159 17.9239C19.8777 18.134 19.5396 18.6035 19.7462 18.6306C20.0004 18.6637 20.5764 18.783 20.8819 19.191C21.2763 19.7183 21.2625 20.9006 21.2625 20.9006C21.2625 20.9006 21.4892 24.1601 20.7329 24.5644C20.2145 24.8422 19.5033 24.2756 17.9745 21.6835C17.192 20.3562 16.601 18.8887 16.601 18.8887C16.601 18.8887 16.487 18.6146 16.2829 18.4671C16.0363 18.2889 15.6919 18.2336 15.6919 18.2336L12.0346 18.2569C12.0346 18.2569 11.4849 18.2717 11.2833 18.5064C11.1043 18.7141 11.2695 19.1455 11.2695 19.1455C11.2695 19.1455 14.1331 25.7222 17.376 29.037C20.3497 32.0752 23.7254 31.8761 23.7254 31.8761H25.2555Z" fill="black"/>
</svg>

<svg width="48" height="48" fill="none" xmlns="http://www.w3.org/2000/svg"><path fill-rule="evenodd" clip-rule="evenodd" d="M0 24C0 10.745 10.745 0 24 0s24 10.745 24 24-10.745 24-24 24S0 37.255 0 24zm25.256 7.876s.462-.05.698-.3c.217-.228.21-.66.21-.66s-.03-2.014.923-2.312c.94-.292 2.145 1.948 3.425 2.81.966.651 1.7.509 1.7.509l3.42-.047s1.788-.108.94-1.488c-.07-.113-.495-1.022-2.542-2.887-2.145-1.953-1.857-1.638.725-5.016 1.573-2.058 2.201-3.314 2.005-3.85-.187-.515-1.344-.378-1.344-.378l-3.849.023s-.285-.038-.497.086c-.206.122-.34.406-.34.406s-.609 1.591-1.422 2.946c-1.714 2.856-2.398 3.007-2.679 2.83-.652-.414-.49-1.661-.49-2.547 0-2.77.429-3.924-.832-4.222-.418-.1-.726-.165-1.797-.176-1.373-.013-2.536.005-3.194.32-.438.211-.776.68-.57.708.254.033.83.152 1.136.56.394.527.38 1.71.38 1.71s.227 3.26-.53 3.663c-.517.278-1.229-.288-2.758-2.88-.782-1.328-1.373-2.795-1.373-2.795s-.114-.274-.318-.422c-.247-.178-.591-.233-.591-.233l-3.657.023s-.55.015-.752.25c-.179.207-.013.638-.013.638s2.863 6.577 6.106 9.892c2.974 3.038 6.35 2.84 6.35 2.84h1.53z" fill="#000"/></svg>
